X:1
T:Young Cupid hath proclaim'd
T:Thomas Weelkes
T:Young Cupid hath proclaim'd
C:Thomas Weelkes
%%score [ 1 2 3 4 ]
L:1/8
Q:1/4=120
M:4/4
K:F
V:1 treble nm="Soprano 1" snm="S 1"
V:2 treble nm="Soprano 2" snm="S 2"
V:3 alto nm="Alto" snm="A"
V:4 bass nm="Bass" snm="B"
V:1
 z8 | z8 | d4 c2 B2 | A3 B c2 d2 | c2 f2 e2 d2 | ^c4 d2 B2 | A6 A2 | A8 | z2 d2 d2 d2 | _e6 e2 | %10
w: ||Young Cu- pid|hath pro- claim'd a|blood- y war, pro-|claim'd _ a|blood- y|war,|And vows re-|venge on|
 d4 c4 | d6 d2 | =B6 d2 | d2 d2 f4- | f2 F2 c2 c2 | d8- | d4 d4 | =B8 | z2 B2 B2 c2 | d3 cBA G2 | %20
w: all the|maid- en|crew, And|vows re- venge|_ on all the|maid-|* en|crew:|O yield, fair|Clo- * * * *|
 d2 d2 d2 e2 | f3 edc B2 | A2 c2 c2 d2 | e3 dcB A2- | A2 G2 A2 c2- | c2 c2 d4 | _e4 d4 | %27
w: ris, O yield, fair|Clo- * * * *|ris, O yield, fair|Clo- * * * *|* * ris, lest,|_ in that|foul jar,|
 c2 f3 edc | =B2 B2 c2 c2 | GG c3 BAG | ^F2 B3 AGA | ^FF G4 F2 | G8 | z4 z2 A2 | B3 c d2 B2 | %35
w: Thine af- ter- pen- ance|make thy fol- ly|rue, thine af- ter- pen- ance,|thine af- ter- pen- ance|make thy fol- ly|rue.|And|yet, I fear, her|
 c2 c2 d3 d | G2 c2 d3 c | B2 B2 A2 A2 | B2 B2 c3 c | F4 z4 | z2 f2 edcB | A3 B c2 c2 | %42
w: wond'- rous beau- ty's|such, her wond'- rous|beau- ty's such, her|wond'- rous beau- ty's|such,|A thou- sand Cu- pids|dare not Clo- ris|
 c2 f2 edcB | A2 d2 c3 c | d2 d2 cBAG | ^FF G4 F2 | G8 | z4 z2 A2 | B3 c d2 B2 | c2 c2 d3 d | %50
w: touch, A thou- sand Cu- pids|dare not Clo- ris|touch, A thou- sand Cu- pids|dare not Clo- ris|touch,|And|yet, I fear, her|wond'- rous beau- ty's|
 G2 c2 d3 c | B2 B2 A2 A2 | B2 B2 c3 c | F4 z4 | z2 f2 edcB | A3 B c2 c2 | c2 f2 edcB | %57
w: such, her wond'- rous|beau- ty's such, her|wond'- rous beau- ty's|such,|A thou- sand Cu- pids|dare not Clo- ris|touch, A thou- sand Cu- pids|
 A2 d2 c3 c | d2 d2 cBAG | ^F2 F2 G4- | G4 ^F4 | G8 |] %62
w: dare not Clo- ris|touch, A thou- sand Cu- pids|dare not Clo-|* ris|touch.|
V:2
 z8 | G4 F2 E2 | D3 E F2 G2- | G2 F2 E2 D2 | E2 C2 E2 A2 | A4 z2 D2 | ^C2 D4 C2 | D8 | %8
w: |Young Cu- pid|hath pro- claim'd a|_ _ blood- y|war, a blood- y|war, a|blood- * y|war,|
 z2 =B2 B2 B2 | c3 B A2 G2 | ^F4 G4- | G4 ^F4 | G2 D2 D2 D2 | F2 F2 F2 F2 | A6 G2 | ^F2 F2 G4- | %16
w: And vows re-|venge on all the|maid- *|* en|crew, And vows re-|venge, And vows re-|venge on|all the maid-|
 G4 ^F4 | G2 G2 G2 A2 | B3 AGF E2 | D2 F2 G4 | A2 F2 F2 G2 | A3 GFE D2 | C2 A2 A2 =B2 | %23
w: * en|crew: O yield, fair|Clo- * * * *|ris, fair Clo-|ris, O yield, fair|Clo- * * * *|ris, O yield, fair|
 c3 BAG F2- | F2 E2 F2 F2- | F2 F2 F4 | G4 F4 | F2 A3 GFE | D2 D2 C3 D | EE A3 GFE | D2 F4 D2 | %31
w: Clo- * * * *|* * ris, lest,|_ in that|foul jar,|Thine af- ter- pen- ance|make thy fol- ly|rue, thine af- ter- pen- ance|make thy fol-|
 D8 | =B,4 z2 D2 | F3 G A2 A2 | G3 A B2 G2 | A4 F4 | EF G3 F F2- | F2 E2 F2 F2 | G3 F _E3 E | %39
w: ly|rue. And|yet, I fear, her|wond'- rous beau- ty's|such, her|wond'- rous beau- * *|* ty's such, her|wond'- rous beau- ty's|
 D4 z4 | z2 d2 cBAG | F2 F2 G3 G | A2 A2 GFED | C2 F2 F2 F2 | F2 F2 EDCB, | A,2 D2 D3 D | %46
w: such,|A thou- sand Cu- pids|dare not Clo- ris|touch, A thou- sand Cu- pids|dare not Clo- ris|touch, A thou- sand Cu- pids|dare not Clo- ris|
 =B,4 z2 D2 | F3 G A2 A2 | G3 A B2 G2 | A4 F4 | EF G3 F F2- | F2 E2 F2 F2 | G3 F _E3 E | D4 z4 | %54
w: touch, And|yet, I fear, her|wond'- rous beau- ty's|such, her|wond'- rous beau- * *|* ty's such, her|wond'- rous beau- ty's|such,|
 z2 d2 cBAG | F2 F2 G3 G | A2 A2 GFED | C2 F2 F2 F2 | F2 F2 EDCB, | A,4 D4 | D6 D2 | =B,8 |] %62
w: A thou- sand Cu- pids|dare not Clo- ris|touch, A thou- sand Cu- pids|dare not Clo- ris|touch, A thou- sand Cu- pids|dare not|Clo- ris|touch.|
V:3
 z8 | z8 | z8 | z8 | A4 G2 F2 | E3 E ^F2 G2- | G2 F2 E4 | ^F2 F2 F2 F2 | G6 G,2 | G,2 G,2 C4- | %10
w: ||||Young Cu- pid|hath pro- claim'd a|_ blood- y|war, And vows re-|venge, And|vows re- venge|
 C2 B,2 A,2 G,2 | A,4 A,4 | G,2 G,2 G,2 G,2 | D4 z2 A,2 | A,2 A,2 C4- | C4 B,4 | A,6 A,2 | G,8 | %18
w: _ on all the|maid- en|crew, And vows re-|venge, And|vows re- venge|_ on|all the|crew:|
 z8 | z2 D2 D2 E2 | F3 EDC B,2 | A,2 A,2 A,2 B,2 | C3 B,A,G, F,2 | G,2 G,2 A,3 B, | C4 C2 A,2- | %25
w: |O yield, fair|Clo- * * * *|ris, O yield, fair|Clo- * * * *|ris, O yield, fair|Clo- ris, lest,|
 A,2 A,2 B,4 | B,4 B,4 | C4 D4 | D2 G3 FED | C3 C A,2 A,2 | A,A, D3 CB,C | A,2 B,2 A,2 A,2 | G,8 | %33
w: _ in that|foul jar,|foul jar,|Thine af- ter- pen- ance|make thy fol- ly|rue, thine af- ter- pen- ance|make thy fol- ly|rue.|
 z2 D2 E2 ^F2 | G2 D2 D4 | F2 C4 =B,2 | C2 _E2 D4- | D2 B,2 C2 C2 | CB, B,4 A,2 | B,2 D2 CB,A,G, | %40
w: And yet, I|fear, her wond'-|rous beau- ty's|such, her beau-|* ty's such, her|wond'- rous beau- ty's|such, A thou- sand Cu- pids|
 F,2 D,2 E,2 E,2 | F,2 F2 EDCB, | A,2 C2 C2 G,2 | A,2 B,2 A,G,F,E, | D,4 G,2 C2- | C2 B,2 A,4 | %46
w: dare not Clo- ris|touch, A thou- sand Cu- pids|dare not Clo- ris|touch, A thou- sand Cu- pids|dare not Clo-|* * ris|
 G,8 | z2 D2 E2 ^F2 | G2 D2 D4 | F2 C4 =B,2 | C2 _E2 D4- | D2 B,2 C2 C2 | CB, B,4 A,2 | %53
w: touch,|And yet, I|fear, her wond'-|rous beau- ty's|such, her beau-|* ty's such, her|wond'- rous beau- ty's|
 B,2 D2 CB,A,G, | F,2 D,2 E,2 E,2 | F,2 F2 EDCB, | A,2 C2 C2 G,2 | A,2 B,2 A,G,F,E, | D,4 G,4 | %59
w: such, A thou- sand Cu- pids|dare not Clo- ris|touch, A thou- sand Cu- pids|dare not Clo- ris|touch, A thou- sand Cu- pids|dare not|
 D4 B,4 | A,8 | G,8 |] %62
w: Clo- *|ris|touch.|
V:4
 z8 | z8 | z8 | D4 C2 B,2 | A,3 B, C2 D2 | A,3 A, D2 G,2 | A,4 A,4 | D,2 D,2 D,2 D,2 | G,8 | C,8 | %10
w: |||Young Cu- pid|hath pro- claim'd a|blood- y war, a|blood- y|war, And vows re-|venge|on|
 D,4 _E,4 | D,6 D,2 | G,,8 | z2 D,2 D,2 D,2 | F,3 F, F,2 _E,2 | D,8- | D,4 D,4 | G,,8 | %18
w: all the|maid- en|crew,|And vows re-|venge on all the|maid-|* en|crew:|
 z2 G,2 G,2 A,2 | B,3 A,G,F, E,2 | D,2 D,4 G,2 | D,2 F,2 F,2 G,2 | A,3 G,F,E, D,2 | %23
w: O yield, fair|Clo- * * * *|ris, fair Clo-|ris, O yield, fair|Clo- * * * *|
 C,2 C,2 F,3 G, | A,B, C2 F,2 F,2- | F,2 F,2 B,,4 | _E,4 B,,4 | F,4 D,4 | G,4 C,4 | C,2 A,,4 D,2 | %30
w: ris, fair Clo- *|* * * ris, lest,|_ in that|foul jar,|Thine af-|ter- pen-|ance make thy|
 D,8 | D,8 | G,,2 G,2 B,3 C | D2 B,2 C2 D2 | G,8 | F,4 D,4 | C,2 C2 B,3 A, | G,2 G,2 F,2 F,2 | %38
w: fol-|ly|rue. And yet, I|fear, her wond'- rous|beau-|ty is|such, her wond'- rous|beau- ty's such, her|
 _E,3 D, C,2 C,2 | B,,2 B,2 A,G,F,_E, | D,2 B,,2 C,2 C,2 | D,2 D2 CB,A,G, | F,2 F,2 C,2 C,2 | %43
w: wond'- rous beau- ty's|such, A thou- sand Cu- pids|dare not Clo- ris|touch, A thou- sand Cu- pids|dare not Clo- ris|
 F,2 D,2 F,E,D,C, | B,,4 C,4 | D,6 D,2 | G,,2 G,2 B,3 C | D2 B,2 C2 D2 | G,8 | F,4 D,4 | %50
w: touch, A thou- sand Cu- pids|dare not|Clo- ris|touch, And yet, I|fear, her wond'- rous|beau-|ty is|
 C,2 C2 B,3 A, | G,2 G,2 F,2 F,2 | _E,3 D, C,2 C,2 | B,,2 B,2 A,G,F,_E, | D,2 B,,2 C,2 C,2 | %55
w: such, her wond'- rous|beau- ty's such, her|wond'- rous beau- ty's|such, A thou- sand Cu- pids|dare not Clo- ris|
 D,2 D2 CB,A,G, | F,2 F,2 C,2 C,2 | F,2 D,2 F,E,D,C, | B,,4 C,4 | D,8 | D,8 | G,,8 |] %62
w: touch, A thou- sand Cu- pids|dare not Clo- ris|touch, A thou- sand Cu- pids|dare not|Clo-|ris|touch.|

